X:1
T:Der Freischütz
T:Gebet
T:Carl Maria von Weber Arr. für Männerchor v. Ludwig Erk
T:Johann Friedrich Kind
T:Gebet
T:Aria der Agathe aus Der Freischütz, 2. Aufzug
T:CPDL - Creative Commons Attribution Non Commercial 3.0
T:CPDL - Creative Commons Attribution Non Commercial 3.0
C:Carl Maria von Weber
Z:Johann Friedrich Kind
Z:CPDL - Creative Commons Attribution Non Commercial 3.0
%%score [ 1 2 3 4 ]
L:1/8
Q:1/4=66
M:2/4
K:G
V:1 treble-8 nm="Tenor\n1"
V:2 treble-8 nm="Tenor\n2"
V:3 bass nm="Bass\n1"
V:4 bass nm="Bass\n2"
V:1
"^Langsam"!pp!!<(! B2 d2!<)! |!>(! e2 d2!>)! | c3 e/d/ |!>(! c2!>)! B2 | d2!<(! e2!<)! | ff f{a}g | %6
w: 1.~Lei- se,|lei- se,|from- me _|Wei- se|schwing dich|auf zum Ster- nen-|
w: 2.~Zu dir|wen- de|ich die _|Hän- de|Herr ohn'|An- fang und ohn'|
!>(! e4 | (d2!>)! =c2) |!pp! B3 e/d/ | d>c A2 |"^poco cresc." (B2 G/)B/ e/d/ | d>c A2 | %12
w: krei-|se. _|Lied er- *|schal- * le!|fei- * * ernd _|wal- * le|
w: En-|de! _|Vor Ge- *|fah- * ren|uns _ _ zu _|wah- * ren|
!<(! g3!<)! g | a/g/ ^f/e/ d/c/ B/A/ | (G2{B} A2) | G2!pp!!<(! B2!<)! |!>(! c3!>)! e/d/ | %17
w: mein Ge-|bet _ zur _ Him- * mels- *|hal- *|le! zur|Him- mels- *|
w: sen- de|dei- * ne _ En- * gel- *|scha- *|ren! die|En- gel- *|
"^< >" c4 | B2 z2 |] %19
w: hal-|le!|
w: scha-|ren!|
V:2
!pp! G2 B2 | ^A2 B2 | A3 A | A2 G2 | (A d2) ^c | d^c de | ^c4 | A4 |!pp! G3 B | A2 A2 | G3 B | %11
 A2 A2 | Bc d=f | e z z e | BB F2 | G2!pp! G2 | G2 F2 | A4 | G2 z2 |] %19
V:3
!pp! D,2 D,2 | ^C,2 D,G,- | G,F, E,F, | F,2 G,2 | A,2 A,2 | A,^A, B,B, | (=A,2 G,2) | F,4 | %8
w: 1.~Lei- se,|lei- se, from-|* * * me|Wei- se|schwing dich|auf zum Ster- nen-|krei- *|se.|
w: 2.~Zu dir|wen- de ich|_ _ _ die|Hän- de|Herr ohn'|An- fang und ohn'|En- *|de!|
!pp! D,3 G, | F,2 F,2 | G,D,B,,/D,/G, | F,2 F,2 | G,A, B,G, | G, z z E, | G,G, D,2 | B,,2!pp! G,2 | %16
w: Lied er-|schal- le!|Fei- * * * ernd|wal- le|mein _ _ Ge-|bet zur|Him- mels- hal-|le! zur|
w: Vor Ge-|fah- ren|uns _ _ _ zu|wah- ren|sen- * * *|de die|En- gel- scha-|ren! die|
 E,2 D,2 | F,4 | [D,G,]2 z2 |] %19
w: Him- mels-|hal-|le!|
w: En- gel-|scha-|ren!|
V:4
!pp! G,,2 G,,2 | G,,2 G,,2 | D,3 D, | D,2 G,,2 | F,2 A,2 | D,F, B,,G,, | A,,4 | D,4 | %8
w: ||from- me||||||
w: ||ich die||||||
!pp! G,,2 G,,2 | D,2 D,2 | G,,3 G,, | D,2 D,2 | G,3 B,, | C, z z C, | D,D, D,2 | G,,2!pp! G,2 | %16
w: ||||||||
w: ||||||||
 E,2 D,2 | D,4 | G,,2 z2 |] %19
w: |||
w: |||

